assets/img/main/trust/nektar.svg

<svg width="991" height="97" viewBox="0 0 991 97" fill="none" xmlns="http://www.w3.org/2000/svg">
<path d="M0.936 97V7.39999H87.592V97H57.896V24.424L64.424 30.824H24.104L30.632 24.424V97H0.936ZM158.476 97L136.204 55.016L160.268 40.936L192.524 97H158.476ZM102.668 97V7.39999H132.876V97H102.668ZM124.172 64.616V40.808H158.092V64.616H124.172ZM163.212 55.4L135.436 52.584L161.164 7.39999H192.652L163.212 55.4ZM304.557 2.02399L293.805 37.992L289.581 21.864C294.616 21.864 298.669 23.272 301.741 26.088C304.898 28.904 306.477 32.8293 306.477 37.864C306.477 42.8133 304.856 46.7813 301.613 49.768C298.456 52.7547 294.445 54.248 289.581 54.248C284.717 54.248 280.664 52.7547 277.421 49.768C274.264 46.7813 272.685 42.8133 272.685 37.864C272.685 36.4987 272.77 35.1333 272.941 33.768C273.197 32.4027 273.666 30.7387 274.349 28.776C275.117 26.8133 276.226 24.2533 277.677 21.096L286.637 2.02399H304.557ZM341.677 2.02399L330.925 37.992L326.701 21.864C331.736 21.864 335.789 23.272 338.861 26.088C342.018 28.904 343.597 32.8293 343.597 37.864C343.597 42.8133 341.976 46.7813 338.733 49.768C335.576 52.7547 331.565 54.248 326.701 54.248C321.837 54.248 317.784 52.7547 314.541 49.768C311.384 46.7813 309.805 42.8133 309.805 37.864C309.805 36.4987 309.89 35.1333 310.061 33.768C310.317 32.4027 310.786 30.7387 311.469 28.776C312.237 26.8133 313.346 24.2533 314.797 21.096L323.757 2.02399H341.677ZM412.173 7.39999H442.381V97H412.173V7.39999ZM384.269 97H354.061V7.39999H384.269V97ZM414.221 63.976H382.221V39.144H414.221V63.976ZM485.959 40.68H525.895V62.44H485.959V40.68ZM488.007 74.216H532.807V97H458.311V7.39999H531.143V30.184H488.007V74.216ZM600.101 97L577.829 55.016L601.893 40.936L634.149 97H600.101ZM544.293 97V7.39999H574.501V97H544.293ZM565.797 64.616V40.808H599.717V64.616H565.797ZM604.837 55.4L577.061 52.584L602.789 7.39999H634.277L604.837 55.4ZM659.413 97V24.296L665.941 30.824H633.173V7.39999H715.349V30.824H682.581L689.109 24.296V97H659.413ZM713.259 97L752.427 7.39999H782.123L821.291 97H790.059L761.131 21.736H772.907L743.979 97H713.259ZM736.555 81.384L744.235 59.624H785.451L793.131 81.384H736.555ZM829.561 97V7.39999H872.697C881.06 7.39999 888.27 8.76533 894.329 11.496C900.473 14.2267 905.209 18.152 908.537 23.272C911.865 28.3067 913.529 34.28 913.529 41.192C913.529 48.104 911.865 54.0773 908.537 59.112C905.209 64.1467 900.473 68.072 894.329 70.888C888.27 73.6187 881.06 74.984 872.697 74.984H846.329L859.769 62.056V97H829.561ZM859.769 65.384L846.329 51.688H870.777C874.958 51.688 878.03 50.7493 879.993 48.872C882.041 46.9947 883.065 44.4347 883.065 41.192C883.065 37.9493 882.041 35.3893 879.993 33.512C878.03 31.6347 874.958 30.696 870.777 30.696H846.329L859.769 17V65.384ZM921.73 52.968L932.482 17L936.706 33.128C931.757 33.128 927.703 31.72 924.546 28.904C921.389 26.0027 919.81 22.0773 919.81 17.128C919.81 12.0933 921.389 8.12533 924.546 5.224C927.789 2.23733 931.842 0.743996 936.706 0.743996C941.57 0.743996 945.581 2.23733 948.738 5.224C951.981 8.12533 953.602 12.0933 953.602 17.128C953.602 18.4933 953.474 19.8587 953.218 21.224C953.047 22.5893 952.621 24.2533 951.938 26.216C951.255 28.0933 950.146 30.6533 948.61 33.896L939.65 52.968H921.73ZM958.85 52.968L969.602 17L973.826 33.128C968.877 33.128 964.823 31.72 961.666 28.904C958.509 26.0027 956.93 22.0773 956.93 17.128C956.93 12.0933 958.509 8.12533 961.666 5.224C964.909 2.23733 968.962 0.743996 973.826 0.743996C978.69 0.743996 982.701 2.23733 985.858 5.224C989.101 8.12533 990.722 12.0933 990.722 17.128C990.722 18.4933 990.594 19.8587 990.338 21.224C990.167 22.5893 989.741 24.2533 989.058 26.216C988.375 28.0933 987.266 30.6533 985.73 33.896L976.77 52.968H958.85Z" fill="#101010"/>
</svg>

<svg width="991" height="97" fill="none" xmlns="http://www.w3.org/2000/svg"><path d="M.936 97V7.4h86.656V97H57.896V24.424l6.528 6.4h-40.32l6.528-6.4V97H.936zm157.54 0l-22.272-41.984 24.064-14.08L192.524 97h-34.048zm-55.808 0V7.4h30.208V97h-30.208zm21.504-32.384V40.808h33.92v23.808h-33.92zm39.04-9.216l-27.776-2.816L161.164 7.4h31.488l-29.44 48zM304.557 2.024l-10.752 35.968-4.224-16.128c5.035 0 9.088 1.408 12.16 4.224 3.157 2.816 4.736 6.741 4.736 11.776 0 4.95-1.621 8.917-4.864 11.904-3.157 2.987-7.168 4.48-12.032 4.48s-8.917-1.493-12.16-4.48c-3.157-2.987-4.736-6.955-4.736-11.904 0-1.365.085-2.73.256-4.096.256-1.365.725-3.03 1.408-4.992.768-1.963 1.877-4.523 3.328-7.68l8.96-19.072h17.92zm37.12 0l-10.752 35.968-4.224-16.128c5.035 0 9.088 1.408 12.16 4.224 3.157 2.816 4.736 6.741 4.736 11.776 0 4.95-1.621 8.917-4.864 11.904-3.157 2.987-7.168 4.48-12.032 4.48s-8.917-1.493-12.16-4.48c-3.157-2.987-4.736-6.955-4.736-11.904 0-1.365.085-2.73.256-4.096.256-1.365.725-3.03 1.408-4.992.768-1.963 1.877-4.523 3.328-7.68l8.96-19.072h17.92zM412.173 7.4h30.208V97h-30.208V7.4zM384.269 97h-30.208V7.4h30.208V97zm29.952-33.024h-32V39.144h32v24.832zm71.738-23.296h39.936v21.76h-39.936V40.68zm2.048 33.536h44.8V97h-74.496V7.4h72.832v22.784h-43.136v44.032zM600.101 97l-22.272-41.984 24.064-14.08L634.149 97h-34.048zm-55.808 0V7.4h30.208V97h-30.208zm21.504-32.384V40.808h33.92v23.808h-33.92zm39.04-9.216l-27.776-2.816L602.789 7.4h31.488l-29.44 48zM659.413 97V24.296l6.528 6.528h-32.768V7.4h82.176v23.424h-32.768l6.528-6.528V97h-29.696zm53.846 0l39.168-89.6h29.696L821.291 97h-31.232l-28.928-75.264h11.776L743.979 97h-30.72zm23.296-15.616l7.68-21.76h41.216l7.68 21.76h-56.576zM829.561 97V7.4h43.136c8.363 0 15.573 1.365 21.632 4.096 6.144 2.73 10.88 6.656 14.208 11.776 3.328 5.035 4.992 11.008 4.992 17.92 0 6.912-1.664 12.885-4.992 17.92-3.328 5.035-8.064 8.96-14.208 11.776-6.059 2.73-13.269 4.096-21.632 4.096h-26.368l13.44-12.928V97h-30.208zm30.208-31.616l-13.44-13.696h24.448c4.181 0 7.253-.939 9.216-2.816 2.048-1.877 3.072-4.437 3.072-7.68 0-3.243-1.024-5.803-3.072-7.68-1.963-1.877-5.035-2.816-9.216-2.816h-24.448L859.769 17v48.384zm61.961-12.416L932.482 17l4.224 16.128c-4.949 0-9.003-1.408-12.16-4.224-3.157-2.901-4.736-6.827-4.736-11.776 0-5.035 1.579-9.003 4.736-11.904 3.243-2.987 7.296-4.48 12.16-4.48s8.875 1.493 12.032 4.48c3.243 2.901 4.864 6.87 4.864 11.904 0 1.365-.128 2.73-.384 4.096-.171 1.365-.597 3.03-1.28 4.992-.683 1.877-1.792 4.437-3.328 7.68l-8.96 19.072h-17.92zm37.12 0L969.602 17l4.224 16.128c-4.949 0-9.003-1.408-12.16-4.224-3.157-2.901-4.736-6.827-4.736-11.776 0-5.035 1.579-9.003 4.736-11.904 3.243-2.987 7.296-4.48 12.16-4.48s8.875 1.493 12.032 4.48c3.243 2.901 4.864 6.87 4.864 11.904 0 1.365-.128 2.73-.384 4.096-.171 1.365-.597 3.03-1.28 4.992-.683 1.877-1.792 4.437-3.328 7.68l-8.96 19.072h-17.92z" fill="#101010"/></svg>
